X:2288 
T:Carol (O Cre ta Dooinney?) 
C:P. Cain
C:Traditional
O:Isle of Man
Z:Clague collection
B:Kiaull Vannin #288
N:Given in Journal of Folk Song Society (vol. not given) as possibly "O cre ta Dooinney" See also KV64 and 214.
N:Moore p.87
M:2/4
L:1/4 
K:G 
G B/A/|G d|e/d/ B/c/|d2 |G B/A/|G d|e/d/ B/c/|d2|
d e/d/|BG|A/B/ c/B/|c2 |d e/e/|d B|c/c/ B/A/|G2||

